X:7
T:Down In Yon Forest
L:1/8
M:6/8
V:1 clef=treble
V:2 clef=treble
V:3 clef=bass
V:4 clef=bass
%%staves [(1 2) | (3 4)]
U: H = fermata
K:Amin
%
[V:1]  A   B   A   G   A  B  | c   B   A   B2  E  |
[V:2]  C   D   C   B,  C  D  | E   D   C   D2  E  |
w: 1.~Down in yon for- est a grow- ing so tall, There
w: 2.~Down in yon for- est there grows a sharp thorn, As
w: 3.~Down in yon for- est there stands a stout oak, For
w: 4.~Down in yon for- est as thick as you please, We'll
w: 5.~Down in yon for- est the ash we shall dress, And
w: 6.~Down in yon for- est there grow great and small, E-
[V:3]  A,  A,  A,  E,  E, E, | A,  A,  A,  E,2 E, |
[V:4]  A,, A,, A,, E,  E, E, | A,, A,, A,, E,2 E, |
%
[V:1] A   B   A   G   A  B  | c   B   A   B2  B  |
[V:2] C   D   C   B,  C  D  | E   D   C   D2  E  |
w: pros- per in win- ter as so shall we all, The
w: bit- ter as a- ny word spo- ken in scorn, But
w: crea- tures a shel- ter, for gods a green cloak, For
w: dance in the or- chard of fine ap- ple trees, Whose
w: bind in- to bun- dles to burn and to bless, To
w: nough sil- ver bir- ches as tor- ches for all, To
[V:3] A,  A,  A,  E,  E, E, | A,  A,  A,  E,2 E, |
[V:4] A,, A,, A,, E,  E, E, | A,, A,, A,, E,2 E, |
%
[V:1] c B c d c d | e c A ^G2 E |
[V:2] E D E F E F | G E C B,2 E |
w: bril- liant green i- vy and hol- ly so bright, So
w: scorn have we none nor the will for to fight, So
w: us good- ly fire- wood to make our hearth bright, So
w: health we will drink 'til the grey mor- ning light, So
w: car- ry good ti- dings and glad- den our sight, So
w: light our way home- ward when time it is right, So
[V:3] A,  A,  A,  G,  G,  G,  | C  A, F, E,2 E, |
[V:4] A,, A,, A,, G,, G,, G,, | C, C, F, E,2 E, |
%
[V:1] A   B   A   G   A  B  | c   B   c   A3   |]
[V:2] C   D   C   B,  C  D  | E   D   E   C3   |]
w: let us be mer- ry this long win- ter's night.
[V:3] A,  A,  A,  E,  E, E, | E,  E,  E,  E,3  |]
[V:4] A,, A,, A,, E,  E, E, | E,  E,  E,  A,,3 |]
%
%%vskip 0.8cm
%
W: 1. Down in yon forest a-growing so tall
W:    There prosper in winter as so shall we all
W:    The brilliant green ivy and holly so bright
W:    So let us be merry this long winter's night
W:
W: 2. Down in yon forest there grows a sharp thorn
W:    As bitter as any word spoken in scorn
W:    But scorn have we none nor the will for to fight
W:    So let us be merry this long winter's night
W:
W: 3. Down in yon forest there stands a stout oak
W:    For creatures a shelter, for gods a green cloak
W:    For us goodly firewood to make our hearth bright
W:    So let us be merry this long winter's night
W:
W: 4. Down in yon forest as thick as you please
W:    We'll dance in the orchard of fine apple trees
W:    Whose health we will drink 'til the grey morning light
W:    So let us be merry this long winter's night
W:
W: 5. Down in yon forest the ash we shall dress
W:    And bind into bundles to burn and to bless
W:    To carry good tidings and gladden our sight
W:    So let us be merry this long winter's night
W:
W: 6. Down in yon forest there grow great and small
W:    Enough silver birches as torches for all
W:    To light our way homeward when time it is right
W:    So let us be merry this long winter's night

%%newpage

